assets/svg/alipay.svg

<?xml version="1.0" encoding="UTF-8"?>
<svg width="1000px" height="1000px" viewBox="0 0 1000 1000" version="1.1" xmlns="http://www.w3.org/2000/svg" xmlns:xlink="http://www.w3.org/1999/xlink">
    <!-- Generator: sketchtool 52.4 (67378) - http://www.bohemiancoding.com/sketch -->
    <title>alipay</title>
    <desc>Created with sketchtool.</desc>
    <g id="新版图标" stroke="none" stroke-width="1" fill="none" fill-rule="evenodd">
        <g id="alipay" fill="#323233">
            <g id="圆角-支付宝">
                <path d="M235.556006,111.111111 L764.447371,111.111111 C832.8915,111.111111 888.888889,167.225078 888.888889,235.806184 L888.888889,639.502127 C888.888889,639.502127 864.001036,636.383368 752.002882,598.97744 C720.888844,588.065733 678.890521,572.476452 632.225093,555.332868 C660.22435,507.017489 681.998548,450.902394 697.555567,391.67418 L543.555713,391.67418 L543.555713,337.1179 L731.778757,337.1179 L731.778757,305.944977 L543.555713,305.944977 L543.555713,213.983898 L467.333074,213.983898 C453.335134,213.983898 453.335134,228.009852 453.335134,228.009852 L453.335134,307.503793 L263.557514,307.503793 L263.557514,338.677843 L453.335134,338.677843 L453.335134,391.671924 L296.221626,391.671924 L296.221626,422.843718 L601.112181,422.843718 C590.221142,461.812973 574.668625,497.660085 557.558156,530.392951 C459.556816,497.660085 353.775842,471.166993 286.88854,488.310577 C244.88684,499.2189 216.886457,517.923556 201.33169,536.62934 C128.221581,625.471661 181.109817,761.077313 335.110796,761.077313 C426.888202,761.077313 515.554205,709.642048 583.998334,625.471661 C686.666779,675.350367 888.888889,759.520754 888.888889,759.520754 L888.888889,764.196072 C888.888889,832.77605 832.890375,888.888889 764.447371,888.888889 L235.556006,888.888889 C167.110751,888.888889 111.111111,832.77605 111.111111,764.196072 L111.111111,235.806184 C111.111111,167.225078 167.110751,111.111111 235.556006,111.111111 Z M300.887718,533.511709 C372.446628,525.718761 439.332804,553.77518 518.667972,592.743307 C461.112631,664.43866 391.1128,709.643176 321.111843,709.643176 C199.777226,709.643176 163.99946,614.566721 224.667331,561.567001 C244.886953,544.422288 280.668096,535.07278 300.887718,533.511709 Z" id="Combined-Shape"></path>
            </g>
        </g>
    </g>
</svg>

<svg width="1000" height="1000" xmlns="http://www.w3.org/2000/svg"><path d="M235.556 111.111h528.891c68.444 0 124.442 56.114 124.442 124.695v403.696S864 636.383 752.003 598.977c-31.114-10.911-73.112-26.5-119.778-43.644 28-48.316 49.774-104.43 65.33-163.659h-154v-54.556H731.78v-31.173H543.556v-91.961h-76.223c-13.998 0-13.998 14.026-13.998 14.026v79.494H263.558v31.174h189.777v52.994H296.222v31.172h304.89c-10.89 38.969-26.443 74.816-43.554 107.549-98.001-32.733-203.782-59.226-270.67-42.082-42.001 10.908-70.002 29.613-85.556 48.318-73.11 88.843-20.222 224.448 133.779 224.448 91.777 0 180.443-51.435 248.887-135.605 102.669 49.878 304.89 134.049 304.89 134.049v4.675c0 68.58-55.998 124.693-124.44 124.693H235.555c-68.445 0-124.445-56.113-124.445-124.693v-528.39c0-68.58 56-124.695 124.445-124.695zm65.332 422.4c71.559-7.792 138.445 20.264 217.78 59.232-57.555 71.696-127.555 116.9-197.556 116.9-121.335 0-157.113-95.076-96.445-148.076 20.22-17.145 56.001-26.494 76.22-28.055z" fill="#323233" fill-rule="evenodd"/></svg>
